MA1T1/128/aimg/phone.svg

<svg clip-rule="evenodd" fill-rule="evenodd" stroke-linejoin="round" stroke-miterlimit="2" viewBox="0 0 41 50" xmlns="http://www.w3.org/2000/svg"><g transform="translate(-48 -31)"><path d="m70.04 80.19c-3.24-.37-6.47-.74-9.71-1.1-2.48-.28-4.96-.53-7.44-.84-.89-.11-1.82-.2-2.52-.88-1.21-1.19-1.62-2.59-1.25-4.27.57-2.6 1.05-5.23 1.62-7.83.74-3.41 1.54-6.81 2.3-10.23.83-3.74 1.59-7.49 2.47-11.21.73-3.06 1.68-6.07 2.39-9.14.35-1.54 1.28-2.46 2.54-3.18.4-.23.91-.42 1.37-.41 1.56.04 3.13.13 4.69.29 2.17.23 4.32.62 6.49.8 3.57.29 7.1.78 10.62 1.45.73.14 1.53.29 2.08.95.57.68 1.3 1.24 1.75 1.98.58.95.96 2.06.76 3.2-.21 1.2-.54 2.39-.81 3.58-.96 4.32-1.9 8.64-2.86 12.95-.47 2.11-1.01 4.2-1.42 6.31-.49 2.54-.8 5.1-1.31 7.63-.49 2.43-1.09 4.83-1.71 7.23-.4 1.55-1.81 2.69-3.4 2.82-1.34.11-2.69.15-4.02.22-.91-.11-1.77-.23-2.63-.32zm-10.6-47.3c-.65.68-.96 1.55-1.19 2.44-1.1 4.17-2.23 8.34-3.26 12.53-.71 2.92-1.26 5.87-1.9 8.81-.77 3.58-1.56 7.16-2.33 10.73-.36 1.68-.77 3.34-1.03 5.03-.26 1.65-.15 3.3 1.22 4.5.5.44 1.23.74 1.89.84 2.11.31 4.24.49 6.37.72 1.32.14 2.65.25 3.97.41 1.72.2 3.44.49 5.16.65 1.76.16 3.54.28 5.3.26 1.67-.02 2.57-1.22 3.37-2.54.89-1.47 1.12-3.13 1.48-4.73.73-3.2 1.32-6.42 1.99-9.63.9-4.31 1.83-8.61 2.72-12.91.65-3.14 1.28-6.3 1.92-9.44.21-1.05.45-2.11.63-3.17.2-1.15-.97-2.87-2.11-3.14-3.58-.87-7.22-1.36-10.89-1.68-2.06-.18-4.11-.52-6.17-.77-1.01-.12-2.02-.18-3.4-.31-1.24-.2-2.62.23-3.74 1.4zm20.17 44.12c.53-1.73.97-3.49 1.36-5.26.37-1.69.6-3.42.92-5.12.44-2.29.89-4.57 1.38-6.84.77-3.62 1.58-7.23 2.36-10.85.54-2.54 1.04-5.09 1.58-7.64.11-.53.41-1.04.46-1.58.11-1.33-.44-2.45-1.33-3.63-.03.31-.05.46-.06.61-.02.5.05 1.01-.06 1.49-.63 2.98-1.32 5.94-1.96 8.92-.95 4.4-1.88 8.81-2.79 13.22-.7 3.33-1.36 6.67-2.05 10.01-.34 1.66-.8 3.29-1.05 4.96-.2 1.35-.85 2.44-1.58 3.52-.25.37-.63.66-.97 1.02 2.03.03 3.22-.94 3.79-2.83z" fill="#252723"/><path d="m66.57 31.78c2.06.25 4.11.58 6.17.77 3.67.32 7.31.81 10.89 1.68 1.14.28 2.32 2 2.11 3.14-.19 1.06-.42 2.11-.63 3.17-.64 3.15-1.26 6.3-1.92 9.44-.9 4.31-1.82 8.61-2.72 12.91-.67 3.21-1.26 6.44-1.99 9.63-.37 1.61-.59 3.27-1.48 4.73-.8 1.32-1.7 2.52-3.37 2.54-1.77.02-3.54-.1-5.3-.26-1.73-.16-3.44-.44-5.16-.65-1.32-.16-2.65-.27-3.97-.41-2.12-.23-4.25-.41-6.37-.72-.66-.1-1.39-.4-1.89-.84-1.37-1.19-1.47-2.85-1.22-4.5.26-1.69.67-3.36 1.03-5.03.77-3.58 1.56-7.15 2.33-10.73.63-2.94 1.18-5.89 1.9-8.81 1.02-4.19 2.16-8.36 3.26-12.53.23-.89.54-1.76 1.19-2.44 1.12-1.16 2.5-1.6 3.73-1.41 1.39.14 2.4.2 3.41.32zm-5.84 40.16c3.43.35 6.87.61 10.3.99 1.46.16 2.91.51 4.36.79 1.09.22 1.14.14 1.27-.95.16-1.43.4-2.85.66-4.26.62-3.33 1.24-6.65 1.91-9.96 1.03-5.14 2.1-10.28 3.16-15.42.26-1.28.58-2.55.87-3.83.12-.54-.03-.96-.61-1.05-.85-.13-1.72-.2-2.58-.29-3.53-.37-7.07-.75-10.6-1.08-2.48-.24-4.97-.41-7.45-.61-.4-.03-.8-.08-1.2-.12-.58-.05-.74.17-.84.74-.18.95-.46 1.88-.69 2.82-.72 2.87-1.48 5.73-2.16 8.61-.77 3.25-1.47 6.52-2.19 9.78-.55 2.52-1.08 5.05-1.6 7.57-.29 1.41-.55 2.82-.82 4.23-.07.36-.11.74-.16 1.1.37.05.74.09 1.12.14 0-.03.01-.05.01-.08 2.41.31 4.82.63 7.24.88zm4.99 5.49c.68.1 1.09-.05 1.3-.69.18-.56.32-1.14.34-1.72.04-.96-.36-1.35-1.31-1.43-2-.18-4-.37-6-.51-.28-.02-.62.14-.84.32-.54.43-.88 2.08-.61 2.72.18.42.56.58 1.41.53 1.9.25 3.81.5 5.71.78zm1.45-43.99c-.06.22.14.59.34.78.21.2.54.35.83.39 2.35.32 4.7.61 7.04.92.25.03.51.05.75.13.5.17.93.08 1.29-.28.16-.16.34-.43.31-.62-.03-.2-.26-.47-.46-.52-.5-.14-1.04-.19-1.56-.25-2.12-.23-4.24-.44-6.35-.69-.48-.05-.95-.2-1.56-.34-.17.13-.56.26-.63.48z" fill="#d6b66b"/><path d="m75.82 79.83c2.03.05 3.22-.93 3.79-2.82.53-1.73.97-3.49 1.36-5.26.37-1.69.6-3.42.92-5.12.44-2.29.89-4.57 1.38-6.84.77-3.62 1.58-7.23 2.36-10.85.54-2.54 1.04-5.09 1.58-7.64.11-.53.41-1.04.46-1.58.11-1.33-.44-2.45-1.33-3.63-.03.31-.05.46-.06.61-.02.5.05 1.01-.06 1.49-.63 2.98-1.32 5.94-1.96 8.92-.95 4.4-1.88 8.81-2.79 13.22-.7 3.33-1.36 6.67-2.05 10.01-.34 1.66-.8 3.29-1.05 4.96-.2 1.35-.85 2.44-1.58 3.52-.25.36-.63.65-.97 1.01z" fill="#876a43"/><g fill="#252723"><path d="m53.48 71.15c-.37-.05-.74-.09-1.12-.14.05-.37.09-.74.16-1.1.27-1.41.52-2.83.82-4.23.52-2.53 1.05-5.05 1.6-7.57.71-3.27 1.42-6.53 2.19-9.78.68-2.88 1.43-5.74 2.16-8.61.24-.94.52-1.87.69-2.82.1-.57.27-.79.84-.74.4.04.8.09 1.2.12 2.48.2 4.97.38 7.45.61 3.54.34 7.07.72 10.6 1.08.86.09 1.72.16 2.58.29.58.09.73.52.61 1.05-.29 1.28-.6 2.55-.87 3.83-1.06 5.14-2.13 10.27-3.16 15.42-.67 3.32-1.29 6.64-1.91 9.96-.26 1.41-.49 2.83-.66 4.26-.13 1.1-.18 1.17-1.27.95-1.45-.28-2.89-.63-4.36-.79-3.43-.38-6.87-.64-10.3-.99-2.42-.25-4.83-.58-7.25-.87zm6.88-33.67c-.48 1.82-.95 3.64-1.42 5.47-.64 2.52-1.31 5.04-1.91 7.57-.54 2.29-1.01 4.59-1.48 6.89-.75 3.67-1.47 7.35-2.21 11.02-.1.5-.24.99-.34 1.48-.09.42.03.68.52.73 2 .23 3.99.5 5.99.71 3.2.35 6.39.67 9.59 1 2.1.21 4.21.4 6.31.62.53.05.79-.1.88-.68.51-3.15 1.05-6.3 1.6-9.44.21-1.19.53-2.35.75-3.54.39-2.1.69-4.22 1.12-6.31.67-3.28 1.4-6.54 2.11-9.81.22-1.03.44-2.07.67-3.1.22-.99.1-1.24-.89-1.37-1.44-.2-2.9-.32-4.35-.47-4.63-.49-9.26-.97-13.89-1.45-.63-.06-1.27-.09-1.97-.15-.6-.11-.93.25-1.08.83z"/><path d="m58.59 76.11c-.27-.64.06-2.29.61-2.72.23-.18.57-.34.84-.32 2 .14 4 .33 6 .51.95.08 1.35.47 1.31 1.43-.02.58-.16 1.17-.34 1.72-.2.64-.61.79-1.3.69-1.9-.27-3.81-.53-5.72-.79-.84.06-1.22-.1-1.4-.52zm6.41-2.17c-1.41-.1-2.82-.21-4.23-.38-.7-.08-1.05.32-1.35.8-.31.49-.35 1.05.04 1.54.12.15.32.3.49.32 1.86.25 3.72.5 5.59.71.7.08 1.08-.53 1-1.52-.08-1.09-.42-1.39-1.54-1.47z"/><path d="m69.37 33.32c2.12.24 4.23.45 6.35.69.52.06 1.05.11 1.56.25.19.05.43.32.46.52.03.19-.15.46-.31.62-.36.35-.79.45-1.29.28-.24-.08-.5-.1-.75-.13-2.35-.3-4.7-.59-7.04-.92-.29-.04-.62-.19-.83-.39-.2-.19-.41-.57-.34-.78.06-.22.46-.34.64-.46.6.11 1.07.26 1.55.32zm-.82.89c1.47.2 2.94.36 4.4.55 1.07.14 2.13.34 3.19.46.29.03.61-.1 1.03-.18-.52-.52-8.27-1.51-9.14-1.3-.03.06-.06.12-.09.19.21.1.4.25.61.28z"/></g><path d="m61.43 36.65c-.59-.11-.91.25-1.07.83-.48 1.82-.95 3.64-1.42 5.47-.64 2.52-1.31 5.04-1.91 7.57-.54 2.29-1.01 4.59-1.48 6.89-.75 3.67-1.47 7.35-2.21 11.02-.1.5-.24.99-.34 1.48-.09.42.03.68.52.73 2 .23 3.99.5 5.99.71 3.2.35 6.39.67 9.59 1 2.1.21 4.21.4 6.31.62.53.05.79-.1.88-.68.51-3.15 1.05-6.3 1.6-9.44.21-1.19.53-2.35.75-3.54.39-2.1.69-4.22 1.12-6.31.67-3.28 1.4-6.54 2.11-9.81.22-1.03.44-2.07.67-3.1.22-.99.1-1.24-.89-1.37-1.44-.2-2.9-.32-4.35-.47-4.63-.49-9.26-.97-13.89-1.45-.64-.06-1.28-.09-1.98-.15z" fill="#62a2d6"/><path d="m61.08 63.55c2.74-2 5.49-3.99 8.29-5.91 2.8-1.93 5.67-3.76 8.55-5.57.72-.45 1.44-.9 2.17-1.34.53-2.51 1.08-5.02 1.63-7.54.22-1.03.44-2.07.67-3.1.15-.66.13-.99-.19-1.18-1.14.54-2.28 1.08-3.41 1.64-2.52 1.24-4.97 2.66-7.39 4.08-2.32 1.37-4.63 2.77-6.87 4.26-.85.56-1.72 1.09-2.54 1.69-.68.49-1.35 1.06-1.83 1.76 3.17.33 6.37-1.39 9.51-.49.2.06.31.3.2.48-.91 1.45-2.22 2.6-3.56 3.64-1.24.97-2.55 1.85-3.82 2.78-1.37 1.01-2.63 2.15-3.83 3.36-1.34 1.35-2.61 2.77-3.91 4.16-.46.49-.94.97-1.41 1.45-.05.23-.09.47-.14.7-.08.37-.17.74-.26 1.12 2.72-1.99 5.42-3.99 8.14-5.99z" fill="#8eb8e0"/><path d="m75.69 58.72c-2.41 1.37-4.83 2.72-7.22 4.12-4.22 2.47-8.39 5.09-12.2 8.16 1.03.13 2.06.25 3.09.37 3.2.35 6.39.67 9.59 1 2.1.21 4.21.4 6.31.62.53.05.79-.1.88-.68.51-3.15 1.05-6.3 1.6-9.44.21-1.19.53-2.35.75-3.54.14-.76.27-1.53.4-2.29-1.08.53-2.15 1.08-3.2 1.68z" fill="#8eb8e0"/><path d="m66.55 75.41c-.09-1.09-.43-1.39-1.55-1.47-1.41-.1-2.82-.21-4.23-.38-.7-.08-1.05.32-1.35.8-.31.49-.35 1.05.04 1.54.12.15.32.3.49.32 1.86.25 3.72.5 5.59.71.71.07 1.09-.54 1.01-1.52z" fill="#cda157"/><path d="m67.95 33.93c.2.1.39.25.59.28 1.47.2 2.94.36 4.4.55 1.07.14 2.13.34 3.19.46.29.03.61-.1 1.03-.18-.52-.52-8.27-1.51-9.14-1.3-.01.07-.04.13-.07.19z" fill="#926b2b"/><path d="m63.87 32.16c-.71-.18-1.66-.11-2.4-.05-.79.06-1.2.5-1.71 1.07-.98 1.11-1.36 2.6-1.25 4.07.66.04 1.18-1.63 1.46-2.12.44-.77.78-1.3 1.58-1.66.83-.37 1.61-.5 2.51-.6.67-.07.95-.65-.19-.71z" fill="#fff"/><path d="m50.53 72.13c-.05.61-.37 1.15-.32 1.81.05.71.43 1.21.87 1.73.39.46 1.8 1.67 1.52.18-.09-.49-.49-.79-.66-1.22-.17-.45-.24-1.05-.27-1.52-.03-.37.17-2.25-1.14-.98z" fill="#fff"/><path d="m60.29 74.13c-1.29.66.18 2.53.54 1.69.19-.46-.21-.82.38-1.09.41-.19.98.08 1.31-.32-.33-.27-1.24-.32-2.23-.28z" fill="#fff"/></g></svg>

<?xml version="1.0" encoding="UTF-8" standalone="no"?>
<!DOCTYPE svg PUBLIC "-//W3C//DTD SVG 1.1//EN" "http://www.w3.org/Graphics/SVG/1.1/DTD/svg11.dtd">
<svg width="100%" height="100%" viewBox="0 0 41 50" version="1.1" xmlns="http://www.w3.org/2000/svg" xmlns:xlink="http://www.w3.org/1999/xlink" xml:space="preserve" xmlns:serif="http://www.serif.com/" style="fill-rule:evenodd;clip-rule:evenodd;stroke-linejoin:round;stroke-miterlimit:2;">
    <g transform="matrix(1,0,0,1,-48,-31)">
        <g>
            <g>
                <path d="M70.04,80.19C66.8,79.82 63.57,79.45 60.33,79.09C57.85,78.81 55.37,78.56 52.89,78.25C52,78.14 51.07,78.05 50.37,77.37C49.16,76.18 48.75,74.78 49.12,73.1C49.69,70.5 50.17,67.87 50.74,65.27C51.48,61.86 52.28,58.46 53.04,55.04C53.87,51.3 54.63,47.55 55.51,43.83C56.24,40.77 57.19,37.76 57.9,34.69C58.25,33.15 59.18,32.23 60.44,31.51C60.84,31.28 61.35,31.09 61.81,31.1C63.37,31.14 64.94,31.23 66.5,31.39C68.67,31.62 70.82,32.01 72.99,32.19C76.56,32.48 80.09,32.97 83.61,33.64C84.34,33.78 85.14,33.93 85.69,34.59C86.26,35.27 86.99,35.83 87.44,36.57C88.02,37.52 88.4,38.63 88.2,39.77C87.99,40.97 87.66,42.16 87.39,43.35C86.43,47.67 85.49,51.99 84.53,56.3C84.06,58.41 83.52,60.5 83.11,62.61C82.62,65.15 82.31,67.71 81.8,70.24C81.31,72.67 80.71,75.07 80.09,77.47C79.69,79.02 78.28,80.16 76.69,80.29C75.35,80.4 74,80.44 72.67,80.51C71.76,80.4 70.9,80.28 70.04,80.19ZM59.44,32.89C58.79,33.57 58.48,34.44 58.25,35.33C57.15,39.5 56.02,43.67 54.99,47.86C54.28,50.78 53.73,53.73 53.09,56.67C52.32,60.25 51.53,63.83 50.76,67.4C50.4,69.08 49.99,70.74 49.73,72.43C49.47,74.08 49.58,75.73 50.95,76.93C51.45,77.37 52.18,77.67 52.84,77.77C54.95,78.08 57.08,78.26 59.21,78.49C60.53,78.63 61.86,78.74 63.18,78.9C64.9,79.1 66.62,79.39 68.34,79.55C70.1,79.71 71.88,79.83 73.64,79.81C75.31,79.79 76.21,78.59 77.01,77.27C77.9,75.8 78.13,74.14 78.49,72.54C79.22,69.34 79.81,66.12 80.48,62.91C81.38,58.6 82.31,54.3 83.2,50C83.85,46.86 84.48,43.7 85.12,40.56C85.33,39.51 85.57,38.45 85.75,37.39C85.95,36.24 84.78,34.52 83.64,34.25C80.06,33.38 76.42,32.89 72.75,32.57C70.69,32.39 68.64,32.05 66.58,31.8C65.57,31.68 64.56,31.62 63.18,31.49C61.94,31.29 60.56,31.72 59.44,32.89ZM79.61,77.01C80.14,75.28 80.58,73.52 80.97,71.75C81.34,70.06 81.57,68.33 81.89,66.63C82.33,64.34 82.78,62.06 83.27,59.79C84.04,56.17 84.85,52.56 85.63,48.94C86.17,46.4 86.67,43.85 87.21,41.3C87.32,40.77 87.62,40.26 87.67,39.72C87.78,38.39 87.23,37.27 86.34,36.09C86.31,36.4 86.29,36.55 86.28,36.7C86.26,37.2 86.33,37.71 86.22,38.19C85.59,41.17 84.9,44.13 84.26,47.11C83.31,51.51 82.38,55.92 81.47,60.33C80.77,63.66 80.11,67 79.42,70.34C79.08,72 78.62,73.63 78.37,75.3C78.17,76.65 77.52,77.74 76.79,78.82C76.54,79.19 76.16,79.48 75.82,79.84C77.85,79.87 79.04,78.9 79.61,77.01Z" style="fill:rgb(37,39,35);"/>
                <path d="M66.57,31.78C68.63,32.03 70.68,32.36 72.74,32.55C76.41,32.87 80.05,33.36 83.63,34.23C84.77,34.51 85.95,36.23 85.74,37.37C85.55,38.43 85.32,39.48 85.11,40.54C84.47,43.69 83.85,46.84 83.19,49.98C82.29,54.29 81.37,58.59 80.47,62.89C79.8,66.1 79.21,69.33 78.48,72.52C78.11,74.13 77.89,75.79 77,77.25C76.2,78.57 75.3,79.77 73.63,79.79C71.86,79.81 70.09,79.69 68.33,79.53C66.6,79.37 64.89,79.09 63.17,78.88C61.85,78.72 60.52,78.61 59.2,78.47C57.08,78.24 54.95,78.06 52.83,77.75C52.17,77.65 51.44,77.35 50.94,76.91C49.57,75.72 49.47,74.06 49.72,72.41C49.98,70.72 50.39,69.05 50.75,67.38C51.52,63.8 52.31,60.23 53.08,56.65C53.71,53.71 54.26,50.76 54.98,47.84C56,43.65 57.14,39.48 58.24,35.31C58.47,34.42 58.78,33.55 59.43,32.87C60.55,31.71 61.93,31.27 63.16,31.46C64.55,31.6 65.56,31.66 66.57,31.78ZM60.73,71.94C64.16,72.29 67.6,72.55 71.03,72.93C72.49,73.09 73.94,73.44 75.39,73.72C76.48,73.94 76.53,73.86 76.66,72.77C76.82,71.34 77.06,69.92 77.32,68.51C77.94,65.18 78.56,61.86 79.23,58.55C80.26,53.41 81.33,48.27 82.39,43.13C82.65,41.85 82.97,40.58 83.26,39.3C83.38,38.76 83.23,38.34 82.65,38.25C81.8,38.12 80.93,38.05 80.07,37.96C76.54,37.59 73,37.21 69.47,36.88C66.99,36.64 64.5,36.47 62.02,36.27C61.62,36.24 61.22,36.19 60.82,36.15C60.24,36.1 60.08,36.32 59.98,36.89C59.8,37.84 59.52,38.77 59.29,39.71C58.57,42.58 57.81,45.44 57.13,48.32C56.36,51.57 55.66,54.84 54.94,58.1C54.39,60.62 53.86,63.15 53.34,65.67C53.05,67.08 52.79,68.49 52.52,69.9C52.45,70.26 52.41,70.64 52.36,71C52.73,71.05 53.1,71.09 53.48,71.14C53.48,71.11 53.49,71.09 53.49,71.06C55.9,71.37 58.31,71.69 60.73,71.94ZM65.72,77.43C66.4,77.53 66.81,77.38 67.02,76.74C67.2,76.18 67.34,75.6 67.36,75.02C67.4,74.06 67,73.67 66.05,73.59C64.05,73.41 62.05,73.22 60.05,73.08C59.77,73.06 59.43,73.22 59.21,73.4C58.67,73.83 58.33,75.48 58.6,76.12C58.78,76.54 59.16,76.7 60.01,76.65C61.91,76.9 63.82,77.15 65.72,77.43ZM67.17,33.44C67.11,33.66 67.31,34.03 67.51,34.22C67.72,34.42 68.05,34.57 68.34,34.61C70.69,34.93 73.04,35.22 75.38,35.53C75.63,35.56 75.89,35.58 76.13,35.66C76.63,35.83 77.06,35.74 77.42,35.38C77.58,35.22 77.76,34.95 77.73,34.76C77.7,34.56 77.47,34.29 77.27,34.24C76.77,34.1 76.23,34.05 75.71,33.99C73.59,33.76 71.47,33.55 69.36,33.3C68.88,33.25 68.41,33.1 67.8,32.96C67.63,33.09 67.24,33.22 67.17,33.44Z" style="fill:rgb(214,182,107);"/>
                <path d="M75.82,79.83C77.85,79.88 79.04,78.9 79.61,77.01C80.14,75.28 80.58,73.52 80.97,71.75C81.34,70.06 81.57,68.33 81.89,66.63C82.33,64.34 82.78,62.06 83.27,59.79C84.04,56.17 84.85,52.56 85.63,48.94C86.17,46.4 86.67,43.85 87.21,41.3C87.32,40.77 87.62,40.26 87.67,39.72C87.78,38.39 87.23,37.27 86.34,36.09C86.31,36.4 86.29,36.55 86.28,36.7C86.26,37.2 86.33,37.71 86.22,38.19C85.59,41.17 84.9,44.13 84.26,47.11C83.31,51.51 82.38,55.92 81.47,60.33C80.77,63.66 80.11,67 79.42,70.34C79.08,72 78.62,73.63 78.37,75.3C78.17,76.65 77.52,77.74 76.79,78.82C76.54,79.18 76.16,79.47 75.82,79.83Z" style="fill:rgb(135,106,67);"/>
                <path d="M53.48,71.15C53.11,71.1 52.74,71.06 52.36,71.01C52.41,70.64 52.45,70.27 52.52,69.91C52.79,68.5 53.04,67.08 53.34,65.68C53.86,63.15 54.39,60.63 54.94,58.11C55.65,54.84 56.36,51.58 57.13,48.33C57.81,45.45 58.56,42.59 59.29,39.72C59.53,38.78 59.81,37.85 59.98,36.9C60.08,36.33 60.25,36.11 60.82,36.16C61.22,36.2 61.62,36.25 62.02,36.28C64.5,36.48 66.99,36.66 69.47,36.89C73.01,37.23 76.54,37.61 80.07,37.97C80.93,38.06 81.79,38.13 82.65,38.26C83.23,38.35 83.38,38.78 83.26,39.31C82.97,40.59 82.66,41.86 82.39,43.14C81.33,48.28 80.26,53.41 79.23,58.56C78.56,61.88 77.94,65.2 77.32,68.52C77.06,69.93 76.83,71.35 76.66,72.78C76.53,73.88 76.48,73.95 75.39,73.73C73.94,73.45 72.5,73.1 71.03,72.94C67.6,72.56 64.16,72.3 60.73,71.95C58.31,71.7 55.9,71.37 53.48,71.08L53.48,71.15ZM60.36,37.48C59.88,39.3 59.41,41.12 58.94,42.95C58.3,45.47 57.63,47.99 57.03,50.52C56.49,52.81 56.02,55.11 55.55,57.41C54.8,61.08 54.08,64.76 53.34,68.43C53.24,68.93 53.1,69.42 53,69.91C52.91,70.33 53.03,70.59 53.52,70.64C55.52,70.87 57.51,71.14 59.51,71.35C62.71,71.7 65.9,72.02 69.1,72.35C71.2,72.56 73.31,72.75 75.41,72.97C75.94,73.02 76.2,72.87 76.29,72.29C76.8,69.14 77.34,65.99 77.89,62.85C78.1,61.66 78.42,60.5 78.64,59.31C79.03,57.21 79.33,55.09 79.76,53C80.43,49.72 81.16,46.46 81.87,43.19C82.09,42.16 82.31,41.12 82.54,40.09C82.76,39.1 82.64,38.85 81.65,38.72C80.21,38.52 78.75,38.4 77.3,38.25C72.67,37.76 68.04,37.28 63.41,36.8C62.78,36.74 62.14,36.71 61.44,36.65C60.84,36.54 60.51,36.9 60.36,37.48Z" style="fill:rgb(37,39,35);"/>
                <path d="M58.59,76.11C58.32,75.47 58.65,73.82 59.2,73.39C59.43,73.21 59.77,73.05 60.04,73.07C62.04,73.21 64.04,73.4 66.04,73.58C66.99,73.66 67.39,74.05 67.35,75.01C67.33,75.59 67.19,76.18 67.01,76.73C66.81,77.37 66.4,77.52 65.71,77.42C63.81,77.15 61.9,76.89 59.99,76.63C59.15,76.69 58.77,76.53 58.59,76.11ZM65,73.94C63.59,73.84 62.18,73.73 60.77,73.56C60.07,73.48 59.72,73.88 59.42,74.36C59.11,74.85 59.07,75.41 59.46,75.9C59.58,76.05 59.78,76.2 59.95,76.22C61.81,76.47 63.67,76.72 65.54,76.93C66.24,77.01 66.62,76.4 66.54,75.41C66.46,74.32 66.12,74.02 65,73.94Z" style="fill:rgb(37,39,35);"/>
                <path d="M69.37,33.32C71.49,33.56 73.6,33.77 75.72,34.01C76.24,34.07 76.77,34.12 77.28,34.26C77.47,34.31 77.71,34.58 77.74,34.78C77.77,34.97 77.59,35.24 77.43,35.4C77.07,35.75 76.64,35.85 76.14,35.68C75.9,35.6 75.64,35.58 75.39,35.55C73.04,35.25 70.69,34.96 68.35,34.63C68.06,34.59 67.73,34.44 67.52,34.24C67.32,34.05 67.11,33.67 67.18,33.46C67.24,33.24 67.64,33.12 67.82,33C68.42,33.11 68.89,33.26 69.37,33.32ZM68.55,34.21C70.02,34.41 71.49,34.57 72.95,34.76C74.02,34.9 75.08,35.1 76.14,35.22C76.43,35.25 76.75,35.12 77.17,35.04C76.65,34.52 68.9,33.53 68.03,33.74C68,33.8 67.97,33.86 67.94,33.93C68.15,34.03 68.34,34.18 68.55,34.21Z" style="fill:rgb(37,39,35);"/>
                <path d="M61.43,36.65C60.84,36.54 60.52,36.9 60.36,37.48C59.88,39.3 59.41,41.12 58.94,42.95C58.3,45.47 57.63,47.99 57.03,50.52C56.49,52.81 56.02,55.11 55.55,57.41C54.8,61.08 54.08,64.76 53.34,68.43C53.24,68.93 53.1,69.42 53,69.91C52.91,70.33 53.03,70.59 53.52,70.64C55.52,70.87 57.51,71.14 59.51,71.35C62.71,71.7 65.9,72.02 69.1,72.35C71.2,72.56 73.31,72.75 75.41,72.97C75.94,73.02 76.2,72.87 76.29,72.29C76.8,69.14 77.34,65.99 77.89,62.85C78.1,61.66 78.42,60.5 78.64,59.31C79.03,57.21 79.33,55.09 79.76,53C80.43,49.72 81.16,46.46 81.87,43.19C82.09,42.16 82.31,41.12 82.54,40.09C82.76,39.1 82.64,38.85 81.65,38.72C80.21,38.52 78.75,38.4 77.3,38.25C72.67,37.76 68.04,37.28 63.41,36.8C62.77,36.74 62.13,36.71 61.43,36.65Z" style="fill:rgb(98,162,214);"/>
                <path d="M61.08,63.55C63.82,61.55 66.57,59.56 69.37,57.64C72.17,55.71 75.04,53.88 77.92,52.07C78.64,51.62 79.36,51.17 80.09,50.73C80.62,48.22 81.17,45.71 81.72,43.19C81.94,42.16 82.16,41.12 82.39,40.09C82.54,39.43 82.52,39.1 82.2,38.91C81.06,39.45 79.92,39.99 78.79,40.55C76.27,41.79 73.82,43.21 71.4,44.63C69.08,46 66.77,47.4 64.53,48.89C63.68,49.45 62.81,49.98 61.99,50.58C61.31,51.07 60.64,51.64 60.16,52.34C63.33,52.67 66.53,50.95 69.67,51.85C69.87,51.91 69.98,52.15 69.87,52.33C68.96,53.78 67.65,54.93 66.31,55.97C65.07,56.94 63.76,57.82 62.49,58.75C61.12,59.76 59.86,60.9 58.66,62.11C57.32,63.46 56.05,64.88 54.75,66.27C54.29,66.76 53.81,67.24 53.34,67.72C53.29,67.95 53.25,68.19 53.2,68.42C53.12,68.79 53.03,69.16 52.94,69.54C55.66,67.55 58.36,65.55 61.08,63.55Z" style="fill:rgb(142,184,224);"/>
                <path d="M75.69,58.72C73.28,60.09 70.86,61.44 68.47,62.84C64.25,65.31 60.08,67.93 56.27,71C57.3,71.13 58.33,71.25 59.36,71.37C62.56,71.72 65.75,72.04 68.95,72.37C71.05,72.58 73.16,72.77 75.26,72.99C75.79,73.04 76.05,72.89 76.14,72.31C76.65,69.16 77.19,66.01 77.74,62.87C77.95,61.68 78.27,60.52 78.49,59.33C78.63,58.57 78.76,57.8 78.89,57.04C77.81,57.57 76.74,58.12 75.69,58.72Z" style="fill:rgb(142,184,224);"/>
                <path d="M66.55,75.41C66.46,74.32 66.12,74.02 65,73.94C63.59,73.84 62.18,73.73 60.77,73.56C60.07,73.48 59.72,73.88 59.42,74.36C59.11,74.85 59.07,75.41 59.46,75.9C59.58,76.05 59.78,76.2 59.95,76.22C61.81,76.47 63.67,76.72 65.54,76.93C66.25,77 66.63,76.39 66.55,75.41Z" style="fill:rgb(205,161,87);"/>
                <path d="M67.95,33.93C68.15,34.03 68.34,34.18 68.54,34.21C70.01,34.41 71.48,34.57 72.94,34.76C74.01,34.9 75.07,35.1 76.13,35.22C76.42,35.25 76.74,35.12 77.16,35.04C76.64,34.52 68.89,33.53 68.02,33.74C68.01,33.81 67.98,33.87 67.95,33.93Z" style="fill:rgb(146,107,43);"/>
            </g>
            <path d="M63.87,32.16C63.16,31.98 62.21,32.05 61.47,32.11C60.68,32.17 60.27,32.61 59.76,33.18C58.78,34.29 58.4,35.78 58.51,37.25C59.17,37.29 59.69,35.62 59.97,35.13C60.41,34.36 60.75,33.83 61.55,33.47C62.38,33.1 63.16,32.97 64.06,32.87C64.73,32.8 65.01,32.22 63.87,32.16Z" style="fill:white;"/>
            <path d="M50.53,72.13C50.48,72.74 50.16,73.28 50.21,73.94C50.26,74.65 50.64,75.15 51.08,75.67C51.47,76.13 52.88,77.34 52.6,75.85C52.51,75.36 52.11,75.06 51.94,74.63C51.77,74.18 51.7,73.58 51.67,73.11C51.64,72.74 51.84,70.86 50.53,72.13Z" style="fill:white;"/>
            <path d="M60.29,74.13C59,74.79 60.47,76.66 60.83,75.82C61.02,75.36 60.62,75 61.21,74.73C61.62,74.54 62.19,74.81 62.52,74.41C62.19,74.14 61.28,74.09 60.29,74.13Z" style="fill:white;"/>
        </g>
    </g>
</svg>
